optimized/24/outline/phone.svg

<svg viewBox="0 0 24 24" xmlns="http://www.w3.org/2000/svg" fill="currentColor" data-slot="icon">
  <g clip-path="url(#clip0_2117_12166)">
    <path d="M12 19C12.8284 19 13.5 18.3284 13.5 17.5C13.5 16.6716 12.8284 16 12 16C11.1716 16 10.5 16.6716 10.5 17.5C10.5 18.3284 11.1716 19 12 19Z"/>
    <path d="M4 5C4 3.34315 5.34315 2 7 2H17C18.6569 2 20 3.34315 20 5V19C20 20.6569 18.6569 22 17 22H7C5.34315 22 4 20.6569 4 19V5ZM7 3.5C6.17157 3.5 5.5 4.17157 5.5 5V19C5.5 19.8284 6.17157 20.5 7 20.5H17C17.8284 20.5 18.5 19.8284 18.5 19V5C18.5 4.17157 17.8284 3.5 17 3.5H7Z"/>
  </g>
  <defs>
    <clipPath id="clip0_2117_12166">
      <rect width="24" height="24"/>
    </clipPath>
  </defs>
</svg>

<svg xmlns="http://www.w3.org/2000/svg" viewBox="0 0 24 24" fill="currentColor" data-slot="icon">
  <g clip-path="url(#a)">
    <path d="M12 19a1.5 1.5 0 1 0 0-3 1.5 1.5 0 0 0 0 3Z"/>
    <path d="M4 5a3 3 0 0 1 3-3h10a3 3 0 0 1 3 3v14a3 3 0 0 1-3 3H7a3 3 0 0 1-3-3V5Zm3-1.5A1.5 1.5 0 0 0 5.5 5v14A1.5 1.5 0 0 0 7 20.5h10a1.5 1.5 0 0 0 1.5-1.5V5A1.5 1.5 0 0 0 17 3.5H7Z"/>
  </g>
  <defs>
    <clipPath id="a">
      <rect width="24" height="24"/>
    </clipPath>
  </defs>
</svg>
